public/icons/Haskell-Dark.svg

<svg width="256" height="256" viewBox="0 0 256 256" fill="none" xmlns="http://www.w3.org/2000/svg">
<rect width="256" height="256" rx="60" fill="#242938"/>
<path d="M28 198.176L75.0593 127.588L28 57H63.2944L110.354 127.588L63.2944 198.176H28Z" fill="#666666"/>
<path d="M75.0595 198.176L122.119 127.588L75.0595 57H110.354L204.471 198.176H169.176L139.766 154.059L110.353 198.176H75.0591L75.0595 198.176Z" fill="#999999"/>
<path d="M188.785 157L173.099 133.468L228 133.466V156.997H188.784L188.785 157ZM165.256 121.706L149.569 98.1735L228 98.1719V121.702H165.251L165.256 121.706Z" fill="#666666"/>
</svg>

<svg xmlns="http://www.w3.org/2000/svg" width="256" height="256" fill="none"><rect width="256" height="256" fill="#242938" rx="60"/><path fill="#666" d="m28 198.176 47.06-70.588L28 57h35.294l47.06 70.588-47.06 70.588z"/><path fill="#999" d="m75.06 198.176 47.059-70.588L75.059 57h35.295l94.117 141.176h-35.295l-29.41-44.117-29.413 44.117z"/><path fill="#666" d="m188.785 157-15.686-23.532 54.901-.002v23.531h-39.216zm-23.529-35.294-15.687-23.532L228 98.172v23.53h-62.749z"/></svg>
